X: 305850
M: 6/8
L: 1/8
K: D
d/e/ |\
fzA fzA | fgf efe | dzc dzf | e2(3(d/c/B/) A2 d/e/ |\
fzA fzA | fgf efe | dcB dcB | f3 z2 H|]


